raw-svg/arrow-up-right-and-arrow-down-left-from-center.svg

<svg fill="none" height="24" viewBox="0 0 24 24" width="24" xmlns="http://www.w3.org/2000/svg"><path clip-rule="evenodd" d="m14 3.75c-.4142 0-.75.33579-.75.75s.3358.75.75.75h3.6894l-4.7197 4.71967c-.2929.29293-.2929.76773 0 1.06063s.7677.2929 1.0606 0l4.7197-4.71965v3.68935c0 .4142.3358.75.75.75s.75-.3358.75-.75v-5.5c0-.41421-.3358-.75-.75-.75zm-4 16.5c.4142 0 .75-.3358.75-.75s-.3358-.75-.75-.75h-3.68934l4.71964-4.7197c.2929-.2929.2929-.7677 0-1.0606s-.7677-.2929-1.06063 0l-4.71967 4.7196v-3.6893c0-.4142-.33579-.75-.75-.75s-.75.3358-.75.75v5.5c0 .4142.33579.75.75.75z" fill="#000" fill-rule="evenodd"/></svg>

<svg width="24" height="24" viewBox="0 0 24 24" fill="none" xmlns="http://www.w3.org/2000/svg">
<path fill-rule="evenodd" clip-rule="evenodd" d="M14 3.75C13.5858 3.75 13.25 4.08579 13.25 4.5C13.25 4.91421 13.5858 5.25 14 5.25H17.6894L12.9697 9.96967C12.6768 10.2626 12.6768 10.7374 12.9697 11.0303C13.2626 11.3232 13.7374 11.3232 14.0303 11.0303L18.75 6.31065V10C18.75 10.4142 19.0858 10.75 19.5 10.75C19.9142 10.75 20.25 10.4142 20.25 10V4.5C20.25 4.08579 19.9142 3.75 19.5 3.75H14ZM10 20.25C10.4142 20.25 10.75 19.9142 10.75 19.5C10.75 19.0858 10.4142 18.75 10 18.75H6.31066L11.0303 14.0303C11.3232 13.7374 11.3232 13.2626 11.0303 12.9697C10.7374 12.6768 10.2626 12.6768 9.96967 12.9697L5.25 17.6893L5.25 14C5.25 13.5858 4.91421 13.25 4.5 13.25C4.08579 13.25 3.75 13.5858 3.75 14V19.5C3.75 19.9142 4.08579 20.25 4.5 20.25H10Z" fill="black"/>
</svg>
